ix/archive-tick_outline.svg

<svg viewBox="0 0 24 24" fill="none" xmlns="http://www.w3.org/2000/svg" height="1em" width="1em">
  <path d="M4.92957 22.75C4.50957 22.75 4.11957 22.65 3.76957 22.45C2.99957 22 2.55957 21.09 2.55957 19.96V5.86C2.55957 3.32 4.62957 1.25 7.16957 1.25H16.8196C19.3596 1.25 21.4296 3.32 21.4296 5.86V19.95C21.4296 21.08 20.9896 21.99 20.2196 22.44C19.4496 22.89 18.4396 22.84 17.4496 22.29L12.5696 19.58C12.2796 19.42 11.7096 19.42 11.4196 19.58L6.53957 22.29C5.99957 22.59 5.44957 22.75 4.92957 22.75ZM7.17957 2.75C5.46957 2.75 4.06957 4.15 4.06957 5.86V19.95C4.06957 20.54 4.23957 20.98 4.53957 21.15C4.83957 21.32 5.30957 21.27 5.81957 20.98L10.6996 18.27C11.4396 17.86 12.5596 17.86 13.2996 18.27L18.1796 20.98C18.6896 21.27 19.1596 21.33 19.4596 21.15C19.7596 20.97 19.9296 20.53 19.9296 19.95V5.86C19.9296 4.15 18.5296 2.75 16.8196 2.75H7.17957Z" fill="#292D32"/>
  <path d="M11.0903 13.2499C10.9003 13.2499 10.7103 13.1799 10.5603 13.0299L9.06027 11.5299C8.77027 11.2399 8.77027 10.7599 9.06027 10.4699C9.35027 10.1799 9.83027 10.1799 10.1203 10.4699L11.0903 11.4399L14.5603 7.96994C14.8503 7.67994 15.3303 7.67994 15.6203 7.96994C15.9103 8.25994 15.9103 8.73994 15.6203 9.02994L11.6203 13.0299C11.4703 13.1799 11.2803 13.2499 11.0903 13.2499Z" fill="#292D32"/>
</svg>

<svg viewBox="0 0 24 24" fill="none" xmlns="http://www.w3.org/2000/svg" height="1em" width="1em">
  <path d="M4.93 22.75c-.42 0-.81-.1-1.16-.3C3 22 2.56 21.09 2.56 19.96V5.86c0-2.54 2.07-4.61 4.61-4.61h9.65c2.54 0 4.61 2.07 4.61 4.61v14.09c0 1.13-.44 2.04-1.21 2.49-.77.45-1.78.4-2.77-.15l-4.88-2.71c-.29-.16-.86-.16-1.15 0l-4.88 2.71c-.54.3-1.09.46-1.61.46Zm2.25-20a3.12 3.12 0 0 0-3.11 3.11v14.09c0 .59.17 1.03.47 1.2.3.17.77.12 1.28-.17l4.88-2.71c.74-.41 1.86-.41 2.6 0l4.88 2.71c.51.29.98.35 1.28.17.3-.18.47-.62.47-1.2V5.86c0-1.71-1.4-3.11-3.11-3.11H7.18Z" fill="#292D32"/>
  <path d="M11.09 13.25c-.19 0-.38-.07-.53-.22l-1.5-1.5a.754.754 0 0 1 0-1.06c.29-.29.77-.29 1.06 0l.97.97 3.47-3.47c.29-.29.77-.29 1.06 0 .29.29.29.77 0 1.06l-4 4c-.15.15-.34.22-.53.22Z" fill="#292D32"/>
</svg>
